X:1
T:Father Angus MacDonnell
M:4/4
R:
K:G
|:D2|G2GAGFED|BddBd2Bd|e2dBcABG|E2E2E2D2|
G2GAGFED|BddBd2ge|dBGBAGAB|G2G2G2:|
|:B2|e2efgfed|BddBd2Bd|e2dBcABG|E2E2E2D2|
G2GAGFED|BddBd2ge|dBGBAGAB|G2G2G2:|
